X: 304
T: Kujawiak Nebieski
B: incoming
M:3/4
L:1/8
Q: 1/4=120
K:Am
V:1 
  F2z4           |F2F3z        |F2FFFz          |F2F2F2                   |z6|
|:"E"(3EF^G B2 BG|"Am"A2 A^G Ae|"Dm"d2 d2 B2    |"Am"e2 ec "E" BA         |
  "E"(3EF^G B2 BG|"Am"A2 A^G Ae|"Dm"d2"E"B2 B2  |"Am"Ac "E" B^G "Am"A2    :|
|:"Dm"F2 FE DD   |"Am"E2 ED CC |"E"B,C B,C B,^G,|"Am"A,^G, A,B, C2        |
  "Dm"F2 FE DD   |"Am"E2 ED CC |"E"B,C B,C B,^G,|"Am"A,C "E"B,^G, "Am"A,2 :|
|:"D"FE F^G AF   |"A"EA E2 E2  |"D"DE D2 D2     |"A"A,^C E2 E2            |
  "D"FE F^G AF   |"A"EA E2 E2  |"D"DE D2"E"B,2  |"A"A,2 A,2 z2            :|
% abcbook-tune_id 63cb082fe8ae88281e8c3a32
% abcbook-tune_composer_id 
% abcbook-boost 0
% abcbook-difficulty 0
% abcbook-tags balkan dances
% abcbook-tablature 
% abcbook-transpose 
% abcbook-tuning 
% abcbook-lastupdated 1674250287866
% abcbook-soundfonts 
% abcbook-repeats 1


